packages/core/src/svgs/tokens/mono/METF.svg

<svg width="24" height="24" viewBox="0 0 24 24" fill="none" xmlns="http://www.w3.org/2000/svg">
<path d="M17.046 11.9221C17.0572 12.3332 16.7239 12.6777 16.2961 12.6888C15.8683 12.7 15.5183 12.3777 15.5015 11.9666C15.4993 11.8656 15.5172 11.7654 15.5542 11.6714C15.591 11.5776 15.6462 11.4919 15.7166 11.4195C15.7869 11.3471 15.8709 11.2894 15.9637 11.2499C16.0565 11.2102 16.1562 11.1894 16.2572 11.1888C16.6794 11.1832 17.035 11.5054 17.046 11.9221ZM7.72337 12.7221C8.14006 12.7221 8.47897 12.3833 8.47897 11.9721C8.47897 11.5554 8.14561 11.2221 7.72337 11.2221C7.30668 11.2221 6.96777 11.5554 6.96777 11.9721C6.96777 12.3833 7.30113 12.7166 7.72337 12.7166V12.7221Z" fill="white"/>
<path fill-rule="evenodd" clip-rule="evenodd" d="M17.0956 5.16609C17.0399 5.33832 16.9288 5.39388 16.7623 5.33276C15.1622 4.77718 13.5509 4.68829 11.873 4.68829C10.4285 4.68829 8.92848 4.71051 7.57286 5.23276C6.85615 5.51056 6.2839 3.66602 4.1449 3.66602C3.55599 3.67713 2.93374 3.78825 2.68927 4.12714C2.42259 4.49939 2.13369 4.86052 2.05036 5.32721C1.93923 6.01058 2.01147 6.71617 2.27259 7.42732C2.41148 7.78288 2.54483 8.14957 2.67816 8.52737C2.75594 8.7385 2.90039 8.89956 3.04485 9.06627C3.12819 9.16077 3.21152 9.25515 3.28375 9.35523C3.32695 9.41797 3.34467 9.49472 3.33333 9.57004C3.32197 9.64535 3.28241 9.71354 3.22263 9.76073C2.03369 10.6941 2.00036 12.5387 2.28925 13.8832C2.7115 15.8167 3.52265 17.3223 5.31719 18.4056C6.68392 19.2279 8.22844 19.3668 9.8008 19.5168C9.84111 19.5212 9.87962 19.5366 9.9119 19.5612C10.4918 20.0632 11.2339 20.3375 12.0009 20.3335C12.6453 20.339 13.7621 20.2668 14.101 19.6224C14.1287 19.5612 14.1899 19.5168 14.2621 19.5113C15.5788 19.3668 16.9956 19.289 18.1901 18.6557C19.1738 18.161 20.0174 17.427 20.6436 16.5214C21.2697 15.6156 21.6582 14.5671 21.7736 13.4721C21.8537 12.8449 21.8537 12.2102 21.7736 11.583C21.6514 10.7108 20.8512 10.233 20.6679 9.53296C20.6622 9.51261 20.6608 9.49122 20.6637 9.47009C20.6665 9.44908 20.6736 9.42886 20.6847 9.41071C21.4069 8.14957 22.207 7.03285 21.9513 5.39388C21.8736 4.89385 21.4236 3.94936 20.8291 3.80491C20.0809 3.6206 19.2992 3.6206 18.5512 3.80491C18.2264 3.91808 17.929 4.09821 17.6781 4.33365C17.4274 4.5691 17.2289 4.8546 17.0956 5.17165V5.16609ZM19.5068 10.9997C19.4526 11.038 19.3901 11.0631 19.3245 11.0726C19.2589 11.0822 19.1919 11.0764 19.129 11.0553L18.1011 10.7274C18.0345 10.7108 17.9679 10.783 17.9956 10.8497C18.2178 11.3387 18.379 12.4775 17.9011 12.9609C17.4011 13.4609 16.9011 13.7721 16.2956 13.7944C15.9844 13.8054 15.6454 13.811 15.2733 13.5832C14.9954 13.4165 14.5898 12.772 14.1899 13.0998C14.1712 13.1136 14.1557 13.131 14.1443 13.1511C14.1327 13.1712 14.1256 13.1935 14.1231 13.2164L14.0399 13.8443C14.0343 13.9055 14.0565 13.9554 14.1065 13.9998C14.4954 14.2944 14.5898 14.4444 14.5954 14.6888C14.6065 15.4777 13.1953 16.1833 12.6175 16.5C12.4787 16.5778 12.4508 16.7778 12.5731 16.8889L13.0009 17.2778C13.5398 17.7445 14.3399 17.6667 14.8955 17.2722C15.1399 17.1001 15.2844 16.8278 15.4232 16.5666L15.5232 16.3833C15.5844 16.2722 15.6677 16.2056 15.7677 16.1667C15.9344 16.1111 16.1121 16.2 16.1566 16.3666C16.2677 16.7778 16.1899 17.1556 15.9177 17.5C15.651 17.8334 15.3566 18.0556 15.0232 18.1779C14.9677 18.2 14.9288 18.2334 14.9009 18.2834C14.8749 18.3308 14.867 18.3862 14.8788 18.439C14.8955 18.5112 14.9344 18.5501 15.0066 18.5668C15.8289 18.7001 17.4123 18.2112 18.1456 17.7612C20.568 16.2611 22.4403 12.2609 19.8901 9.93302C19.3456 9.43301 18.7122 8.66626 18.3622 8.02179C18.1011 7.54399 18.1512 6.76617 18.1956 6.22725C18.2345 5.76056 18.6067 5.35499 18.9013 5.03276L18.9401 4.9883C19.1512 4.76052 19.7012 4.67718 19.729 5.13276C19.7401 5.30499 19.7124 5.4661 19.6402 5.62723C19.6067 5.69945 19.6512 5.78834 19.7346 5.79945C20.0902 5.87168 20.9735 5.93836 21.0235 5.43278C21.0791 4.94941 20.4679 4.46605 19.9791 4.42161C18.8512 4.3216 18.0734 4.90496 17.5734 5.82723L17.4123 6.11058C17.2678 6.34392 17.0788 6.39394 16.8455 6.26059C15.501 5.48832 13.4009 5.43832 11.8675 5.46056C10.3896 5.48278 8.30622 5.54389 6.97839 6.28281C6.93226 6.30755 6.88162 6.32273 6.82951 6.32742C6.77738 6.33213 6.72486 6.32627 6.67505 6.31018C6.62526 6.2941 6.57921 6.26814 6.53968 6.23384C6.50016 6.19953 6.46796 6.15762 6.44502 6.11058C6.05611 5.24387 5.41163 4.5105 4.40603 4.4105C3.932 4.3706 3.46123 4.5182 3.09485 4.82163C2.90596 4.96608 2.81706 5.15498 2.82261 5.38277C2.84483 5.93836 3.78377 5.87168 4.1449 5.79945C4.16261 5.79591 4.17932 5.78848 4.19381 5.7777C4.20832 5.76693 4.22025 5.75307 4.22874 5.73713C4.23724 5.72119 4.2421 5.70356 4.24298 5.68553C4.24385 5.66748 4.24072 5.64946 4.23379 5.63278C4.12268 5.35499 4.0449 5.09942 4.27268 4.86052C4.30043 4.83039 4.33771 4.81077 4.37825 4.80496C4.91161 4.7494 5.63943 5.67723 5.69499 6.21059C5.75054 6.77728 5.8061 7.53843 5.49497 8.0329C5.03903 8.71367 4.52205 9.35147 3.95045 9.93859C3.56768 10.337 3.27525 10.8131 3.0931 11.3346C2.91093 11.8562 2.84332 12.4109 2.89485 12.9609C2.96345 13.99 3.29733 14.9836 3.86397 15.8453C4.43062 16.7069 5.21073 17.4072 6.12834 17.8779C6.99504 18.3279 8.184 18.4334 9.14515 18.5612C9.2396 18.5724 9.28405 18.5335 9.2896 18.439C9.30071 18.3223 9.24516 18.2389 9.12849 18.2C8.81746 18.111 8.53242 17.9484 8.29745 17.726C8.06247 17.5036 7.88445 17.2279 7.77842 16.9222C7.71175 16.7278 7.6673 16.2333 7.93953 16.1444C8.10622 16.0889 8.31733 16.1167 8.41735 16.2834C8.60068 16.5945 8.73402 17.0056 9.03404 17.2112C9.8008 17.7334 10.5342 17.6611 11.2398 16.9889C11.3175 16.9111 11.5731 16.6278 11.4063 16.5222C10.9175 16.2166 9.1396 15.4555 9.14515 14.6888C9.14515 14.4555 9.3396 14.2222 9.75633 13.9998C9.77759 13.9906 9.79548 13.9749 9.80754 13.955C9.81947 13.9351 9.82491 13.9119 9.82297 13.8887C9.81182 13.7166 9.78407 13.5221 9.74518 13.3054C9.67855 12.8999 9.17293 12.8664 8.98959 13.1776C8.70069 13.661 8.16177 13.7888 7.72286 13.7944C7.05617 13.8054 6.43391 13.4609 5.9561 13.0054C5.51719 12.5887 5.66721 11.3608 5.81166 10.8664C5.83943 10.783 5.7561 10.7053 5.67275 10.733C5.33385 10.8331 5.00606 10.9386 4.68382 11.0609C4.31714 11.1997 3.92267 10.8108 4.22824 10.4997C4.43936 10.283 4.73383 10.0497 5.03939 9.96076C6.03944 9.68295 7.05061 9.66635 8.07844 9.91072C9.61179 10.2886 10.3118 12.1887 10.6564 13.5499C10.6841 13.661 10.7897 13.7387 10.9063 13.7276C11.5952 13.6777 12.2787 13.6831 12.962 13.7443C12.9953 13.7443 13.0287 13.722 13.0342 13.6887C13.4454 12.4109 14.0898 10.3275 15.6177 9.93859C16.2759 9.74919 16.9637 9.68515 17.6456 9.74971C18.5068 9.86081 18.9512 9.94961 19.5513 10.4941C19.7068 10.6331 19.6845 10.8941 19.5068 10.9997ZM17.3289 12.0776V11.7998C17.3345 11.2998 16.9178 10.883 16.4177 10.883L16.0788 10.8775C15.5788 10.8775 15.151 11.283 15.151 11.7775V12.0553C15.1399 12.5553 15.5566 12.9721 16.0567 12.9777H16.4011C16.9011 12.9777 17.3233 12.572 17.3289 12.0776ZM8.82847 12.1331C8.82291 12.6053 8.41179 13.011 7.92842 13.0054H7.53952C7.05617 12.9998 6.65059 12.5887 6.6617 12.1109V11.7609C6.6617 11.283 7.07282 10.8886 7.55619 10.8941H7.94509C8.42846 10.8997 8.83402 11.3053 8.82847 11.7831V12.1331Z" fill="white"/>
</svg>

<svg xmlns="http://www.w3.org/2000/svg" width="24" height="24" fill="none" viewBox="0 0 24 24">
    <path fill="#fff" d="M17.046 11.922a.757.757 0 0 1-.75.767.763.763 0 0 1-.794-.722.76.76 0 0 1 .755-.778.767.767 0 0 1 .789.733m-9.323.8a.755.755 0 0 0 .756-.75.75.75 0 0 0-.756-.75.747.747 0 1 0 0 1.495z"/>
    <path fill="#fff" fill-rule="evenodd" d="M17.096 5.166q-.084.258-.334.167c-1.6-.556-3.211-.645-4.889-.645-1.444 0-2.945.023-4.3.545-.717.278-1.29-1.567-3.428-1.567-.589.011-1.211.122-1.456.461-.266.372-.555.734-.639 1.2a4.1 4.1 0 0 0 .223 2.1q.206.534.405 1.1c.078.212.222.373.367.54.083.094.167.188.239.288a.3.3 0 0 1-.061.406c-1.19.933-1.223 2.778-.934 4.122.422 1.934 1.234 3.44 3.028 4.523 1.367.822 2.911.96 4.484 1.11q.062.007.11.045c.58.502 1.323.776 2.09.773.644.005 1.761-.067 2.1-.712a.19.19 0 0 1 .161-.11c1.317-.145 2.734-.223 3.928-.856a6.57 6.57 0 0 0 3.584-5.184c.08-.627.08-1.262 0-1.889-.123-.872-.923-1.35-1.106-2.05a.16.16 0 0 1 .017-.122c.722-1.261 1.522-2.378 1.266-4.017-.077-.5-.527-1.445-1.122-1.59a4.76 4.76 0 0 0-2.278 0 2.46 2.46 0 0 0-1.455 1.368zM19.506 11a.42.42 0 0 1-.377.055l-1.028-.328c-.066-.016-.133.056-.105.123.222.489.383 1.627-.095 2.11-.5.5-1 .812-1.605.834-.312.011-.65.017-1.023-.21-.278-.168-.683-.812-1.083-.484a.17.17 0 0 0-.067.116l-.083.628a.18.18 0 0 0 .067.156c.388.294.483.444.488.689.011.789-1.4 1.494-1.978 1.811a.243.243 0 0 0-.044.389l.428.389c.539.466 1.339.389 1.895-.006.244-.172.388-.444.527-.705l.1-.184a.46.46 0 0 1 .245-.216.3.3 0 0 1 .389.2c.11.41.033.789-.24 1.133-.266.333-.56.556-.894.678a.23.23 0 0 0-.122.105.22.22 0 0 0-.022.156.15.15 0 0 0 .128.128c.822.133 2.405-.356 3.139-.806 2.422-1.5 4.294-5.5 1.744-7.828-.544-.5-1.178-1.267-1.528-1.911-.26-.478-.21-1.256-.166-1.795.038-.466.41-.872.705-1.194l.04-.045c.21-.227.76-.31.788.145a1 1 0 0 1-.089.494.122.122 0 0 0 .095.172c.355.073 1.239.14 1.288-.366.056-.484-.555-.967-1.044-1.011-1.128-.1-1.906.483-2.406 1.405l-.16.284q-.217.35-.567.15c-1.345-.773-3.445-.823-4.978-.8-1.478.022-3.562.083-4.89.822a.39.39 0 0 1-.533-.172c-.389-.867-1.033-1.6-2.039-1.7a1.82 1.82 0 0 0-1.311.41.65.65 0 0 0-.272.562c.022.555.96.489 1.322.416a.122.122 0 0 0 .089-.166c-.111-.278-.19-.534.039-.772a.18.18 0 0 1 .105-.056c.534-.056 1.261.872 1.317 1.406.056.566.111 1.327-.2 1.822Q4.81 9.055 3.95 9.939a3.85 3.85 0 0 0-1.055 3.022 5.97 5.97 0 0 0 3.233 4.917c.867.45 2.056.555 3.017.683.095.011.14-.027.145-.122.01-.117-.045-.2-.162-.239a2.02 2.02 0 0 1-1.35-1.278c-.066-.194-.11-.689.162-.778.166-.055.377-.027.477.14.184.31.317.722.617.927q1.149.784 2.206-.222c.078-.078.333-.361.166-.467-.489-.305-2.266-1.066-2.26-1.833 0-.233.194-.467.61-.69a.11.11 0 0 0 .067-.11 5 5 0 0 0-.078-.584c-.066-.405-.572-.439-.755-.127-.29.483-.828.61-1.267.616-.667.011-1.29-.333-1.767-.789-.439-.416-.289-1.644-.144-2.139.027-.083-.056-.16-.14-.133-.338.1-.666.206-.988.328-.367.139-.761-.25-.456-.561.211-.217.506-.45.811-.54a6 6 0 0 1 3.04-.05c1.533.379 2.233 2.279 2.577 3.64a.236.236 0 0 0 .25.178q1.033-.075 2.056.016c.033 0 .067-.022.072-.055.411-1.278 1.056-3.361 2.584-3.75a5.5 5.5 0 0 1 2.028-.19c.86.112 1.305.2 1.905.745a.32.32 0 0 1-.044.506m-2.177 1.078V11.8a.916.916 0 0 0-.911-.917l-.34-.005c-.5 0-.927.405-.927.9v.277c-.011.5.406.917.906.923h.344c.5 0 .922-.406.928-.9m-8.5.055a.9.9 0 0 1-.9.872h-.39a.894.894 0 0 1-.877-.894v-.35c0-.478.41-.872.894-.867h.39a.9.9 0 0 1 .882.89z" clip-rule="evenodd"/>
</svg>
